frontend/public/assets/material-icons/folder-debug-open.svg

<svg xmlns="http://www.w3.org/2000/svg" viewBox="0 0 32 32">
  <path d="M28.96692,12H9.44152a2,2,0,0,0-1.89737,1.36754L4,24V10H28a2,2,0,0,0-2-2H15.1241a2,2,0,0,1-1.28038-.46357L12.5563,6.46357A2,2,0,0,0,11.27592,6H4A2,2,0,0,0,2,8V24a2,2,0,0,0,2,2H26l4.80523-11.21213A2,2,0,0,0,28.96692,12Z" style="fill: #f9a825"/>
  <path d="M32,18V16H29.65326a6.02135,6.02135,0,0,0-1.71747-2.52155L30,11.41418,28.58582,10l-2.4123,2.41223a5.93616,5.93616,0,0,0-4.347,0L19.41418,10,18,11.41418l2.06421,2.06427A6.02135,6.02135,0,0,0,18.34674,16H16v2h2v2H16v2h2v2H16v2h2.34875a5.99208,5.99208,0,0,0,11.3025,0H32V24H30V22h2V20H30V18Zm-6,8H22V24h4Zm0-6H22V18h4Z" style="fill: #fff9c4;fill-rule: evenodd"/>
</svg>

<svg xmlns="http://www.w3.org/2000/svg" viewBox="0 0 32 32"><path fill="#f9a825" d="M28.967 12H9.442a2 2 0 0 0-1.898 1.368L4 24V10h24a2 2 0 0 0-2-2H15.124a2 2 0 0 1-1.28-.464l-1.288-1.072A2 2 0 0 0 11.276 6H4a2 2 0 0 0-2 2v16a2 2 0 0 0 2 2h22l4.805-11.212A2 2 0 0 0 28.967 12"/><path fill="#fff9c4" d="M32 18v-2h-2.347a6 6 0 0 0-1.717-2.522L30 11.414 28.586 10l-2.412 2.412a5.94 5.94 0 0 0-4.347 0L19.414 10 18 11.414l2.064 2.064A6 6 0 0 0 18.347 16H16v2h2v2h-2v2h2v2h-2v2h2.349a5.992 5.992 0 0 0 11.302 0H32v-2h-2v-2h2v-2h-2v-2Zm-6 8h-4v-2h4Zm0-6h-4v-2h4Z"/></svg>
